x-pack/solutions/search/plugins/search_indices/public/assets/python.svg

<svg width="128" height="128" viewBox="0 0 128 128" fill="none" xmlns="http://www.w3.org/2000/svg">
<g clip-path="url(#clip0_693_142103)">
<path d="M62.8491 0.00101407C57.628 0.0257468 52.6444 0.469698 48.2568 1.2463C35.334 3.52913 32.9893 8.30749 32.9893 17.121V28.7589H63.5256V32.6383H21.5282C12.6541 32.6383 4.88312 37.9719 2.4519 48.1222C-0.35279 59.7527 -0.476454 67.0118 2.4519 79.1567C4.62219 88.1978 9.80616 94.6382 18.6815 94.6382H29.1817V80.6865C29.1817 70.6067 37.9013 61.7165 48.2581 61.7165H78.7597C87.2504 61.7165 94.0271 54.7246 94.0271 46.1992V17.1222C94.0271 8.84542 87.0451 2.62886 78.7597 1.24754C73.5114 0.374478 68.0689 -0.022482 62.8491 0.00101407ZM46.3351 9.3611C49.4885 9.3611 52.0657 11.9791 52.0657 15.1993C52.0657 18.4058 49.4898 20.9991 46.3351 20.9991C43.1693 20.9991 40.6058 18.4058 40.6058 15.1993C40.6045 11.9791 43.1693 9.3611 46.3351 9.3611Z" fill="url(#paint0_linear_693_142103)"/>
<path d="M97.8345 46.1991C97.8345 56.7105 88.9208 65.5586 78.7582 65.5586H48.2566C39.9019 65.5586 32.9891 72.7101 32.9891 81.0772V110.157C32.9891 118.431 40.1838 123.3 48.2566 125.673C57.9221 128.513 67.1919 129.028 78.7582 125.673C86.4451 123.446 94.0257 118.966 94.0257 110.157V98.5174H63.5253V94.6369H109.296C118.17 94.6369 121.479 88.4475 124.566 79.1554C127.754 69.5901 127.616 60.3908 124.566 48.1209C122.372 39.2851 118.183 32.637 109.296 32.637H97.8345V46.1991ZM80.6787 106.276C83.8457 106.276 86.4092 108.869 86.4092 112.078C86.4092 115.296 83.8445 117.914 80.6787 117.914C77.5252 117.914 74.9493 115.296 74.9493 112.078C74.9493 108.869 77.5252 106.276 80.6787 106.276Z" fill="url(#paint1_linear_693_142103)"/>
</g>
<defs>
<linearGradient id="paint0_linear_693_142103" x1="-3.83328" y1="4.92313" x2="91.4068" y2="86.0397" gradientUnits="userSpaceOnUse">
<stop stop-color="#5A9FD4"/>
<stop offset="1" stop-color="#306998"/>
</linearGradient>
<linearGradient id="paint1_linear_693_142103" x1="94.1703" y1="101.039" x2="68.9126" y2="65.6196" gradientUnits="userSpaceOnUse">
<stop stop-color="#FFD43B"/>
<stop offset="1" stop-color="#FFE873"/>
</linearGradient>
<clipPath id="clip0_693_142103">
<rect width="128" height="128" fill="white"/>
</clipPath>
</defs>
</svg>

<svg xmlns="http://www.w3.org/2000/svg" width="128" height="128" fill="none"><g clip-path="url(#a)"><path fill="url(#b)" d="M62.85.001C57.627.026 52.643.47 48.256 1.246 35.334 3.53 32.989 8.307 32.989 17.121v11.638h30.537v3.88H21.528c-8.874 0-16.645 5.333-19.076 15.483-2.805 11.63-2.928 18.89 0 31.035 2.17 9.04 7.354 15.481 16.23 15.481h10.5V80.686c0-10.08 8.72-18.97 19.076-18.97H78.76c8.49 0 15.267-6.991 15.267-15.517V17.122c0-8.277-6.982-14.493-15.267-15.874C73.51.374 68.069-.022 62.85 0M46.335 9.36c3.154 0 5.73 2.618 5.73 5.838 0 3.207-2.575 5.8-5.73 5.8-3.166 0-5.73-2.593-5.73-5.8 0-3.22 2.564-5.838 5.73-5.838"/><path fill="url(#c)" d="M97.835 46.2c0 10.51-8.914 19.359-19.077 19.359H48.257c-8.355 0-15.268 7.151-15.268 15.518v29.08c0 8.274 7.195 13.143 15.268 15.516 9.665 2.84 18.935 3.355 30.501 0 7.687-2.227 15.268-6.707 15.268-15.516v-11.64h-30.5v-3.88h45.77c8.874 0 12.183-6.19 15.27-15.482 3.188-9.565 3.05-18.764 0-31.034-2.194-8.836-6.383-15.484-15.27-15.484H97.835zm-17.156 60.076c3.167 0 5.73 2.593 5.73 5.802 0 3.218-2.565 5.836-5.73 5.836-3.154 0-5.73-2.618-5.73-5.836 0-3.209 2.576-5.802 5.73-5.802"/></g><defs><linearGradient id="b" x1="-3.833" x2="91.407" y1="4.923" y2="86.04" gradientUnits="userSpaceOnUse"><stop stop-color="#5A9FD4"/><stop offset="1" stop-color="#306998"/></linearGradient><linearGradient id="c" x1="94.17" x2="68.913" y1="101.039" y2="65.62" gradientUnits="userSpaceOnUse"><stop stop-color="#FFD43B"/><stop offset="1" stop-color="#FFE873"/></linearGradient><clipPath id="a"><path fill="#fff" d="M0 0h128v128H0z"/></clipPath></defs></svg>
